X:1
T:Title
%%score { ( 1 4 ) | ( 2 3 ) }
L:1/8
M:4/4
K:Bb
V:1 treble nm="Grand Piano"
V:4 treble 
V:2 bass 
V:3 bass 
V:1
 z4 z2[Q:1/4=100] [B,D]>[CE] | [B,DF]2 [A,EF]2 [F,B,F]2 [A,EF][B,DF] | %2
 [B,EG]2 [=B,G]2 [CEG]2 [CEA]A | B2 [DG=B]2 [CGc]2 [GA_d]2 | [^FAd]6 [FAd]>[FAd] | %5
 [FAd]2 c2 G2 [CEA][EAc] | z4 z2 .F2 | [CFA]3 [FA] [=EG]2 [CEGBc]2 |[M:3/4] [EFc]6 |[M:1/4] F>F | %10
[M:4/4] F2 F2 Fe d>c | z2 F4 z2 | F2 F2 Fe d>_d | [Fd]6 z2 | d2 d2 d2 [^Fc]>[Fc] | %15
 [GB]2 [FB]2 [=EB][EG][EA][EB] | dBed d2 c2 |[M:3/4] [DB]6 |] %18
V:2
 z4 z2 [B,,F,]2 | [B,,,B,,]2 [C,,C,]2 [D,,D,]2 [C,,C,][B,,,B,,] | [E,,E,]2 [D,,D,]2 C,,2 z [CE] | %3
 [G,B,D]2 [F,,F,]2 [=E,,=E,]2 [_E,,_E,]2 | [D,,D,]2 ^F,,A,, D,2 [D,,D,]2 | %5
 z2[K:treble] [EA]2 [CE]2[K:bass] [F,,F,]2 | [B,,,B,,]2 [F,,F,]2 [D,,D,]2 [_D,,_D,]2 | %7
 z2 z C C2 C,2 |[M:3/4] F,,C, F,G, A,2 |[M:1/4] F,>F, | %10
[M:4/4] F,2 F,2 z[K:treble] G [F,F]>[K:bass][F,E] | [F,D]2 D4 F,>F, | F,2 F,2 z[K:treble] G F>F | %13
 B,2 F,2 B,,2 D,>[F,A,F] | [B,F]2 [A,C^F]2 [G,B,G]2[K:bass] [D,G,]>[D,A,] | %15
 [E,G,]2 [_D,G,]2 [C,G,][C,B,][C,A,][C,G,] | [F,B,F][F,B,D][F,B,G][F,B,F] [F,A,F]2 [F,A,E]2 | %17
[M:3/4] [B,,B,]6 |] %18
V:3
 x8 | x8 | z4 z2 [F,,F,]2 | x8 | x8 | [F,,F,]6[K:treble][K:bass] z2 | x8 | [C,,C,]6 z2 | %8
[M:3/4] x6 |[M:1/4] x2 |[M:4/4] z4 F,2[K:treble] z2[K:bass] | z2 F,2 z4 | %12
 z4 F,2[K:treble] [F,A,]2 | x8 | x6[K:bass] x2 | x8 | x8 |[M:3/4] x6 |] %18
V:4
 x8 | x8 | x8 | x8 | x8 | x8 | [B,EG]2 [B,DF]2 [F,B,F]2 B,-[B,G] | x8 |[M:3/4] x6 |[M:1/4] x2 | %10
[M:4/4] x8 | B2 z2 F,2 F>F | x8 | z2 B,2 B,2 [B,FB]>c | x8 | x8 | x8 |[M:3/4] x6 |] %18

